X: 25
T:Kemps Jegg
M:6/8
L:1/8
Q:110
R:Jig
K:DAeol
d>ed d>ed|c>de e>dc|d>ef e2d|c3 A3:|
F3 G3|A6|F3 G3|A6|F2E F2G|A2A A>GF|E2D E>FE|D3 D3||

